!!!!SEGMENT: pl-sa--l-1643--065_anonim--ardens-est-cor-meum.krn
!!!cenid: 16xx:1423
!!!COM: Anonim
!!!COM-rismid: pe30004985
!!!CDT:
!!!CNT:
!!!OTL: Ardens est cor meum
!!!PDT:
!!!AGN: Sacred
!!!SMS-siglum: PL-SA
!!!SMS-shelfmark: L 1643
!!!SMS-shelfwork: 065 W
!!!SMS-variant:
!!!SMS-altvar:
!!!NIFC-rismid: 1001063203
!!!URL-scan: http://repozytorium.nifc.pl/skany/pl-sa-nut--l1643
!!!ONB-nifc: UWAGA: 8 ksiąg. Primi chori: 1mus Cantus (x), C 2dus (110-111), C 3tius (35-36), Bassus (x); Secondi chori: Primus Cantus (88), C 2dus (91-92), Altus (x), Bassus (112-113). UWAGA: Nie dodawać pustych linii, chyba że w rękopisie pojawiają się dodatkowe oznaczenia dotyczące pełnej obsady (a 4, a 8 itp.)
!!!key:
**kern	**text	**kern	**text	**kern	**text	**kern	**text	**kern	**text
*group2	*	*group2	*	*group2	*	*group1	*	*group1	*
*part5	*part5	*part4	*part4	*part3	*part3	*part2	*part2	*part1	*part1
*staff5	*staff5	*staff4	*staff4	*staff3	*staff3	*staff2	*staff2	*staff1	*staff1
*Iempty	*	*Iempty	*	*Iempty	*	*Iempty	*	*Iempty	*
*I"Bassus 2di Chori	*	*I"Cantus 2dus 2di Chori	*	*I"Primus Cantus 2di chori	*	*I"Cantus 3tius Primi Chori	*	*I"Cantus 2dus Primi Chori	*
*I'[Coro 2 B]	*	*I'[Coro 2 C 2]	*	*I'[Coro 2 C 1]	*	*I'[Coro 1 C 3]	*	*I'[Coro 1 C 2]	*
*clefC3	*	*clefC1	*	*clefG2	*	*clefC2	*	*clefC1	*
*k[b-]	*	*k[b-]	*	*k[b-]	*	*k[b-]	*	*k[b-]	*
*g:	*	*g:	*	*g:	*	*g:	*	*g:	*
*M2/2	*	*M2/2	*	*M2/2	*	*M2/2	*	*M2/2	*
*met(C|)	*	*met(C|)	*	*met(C|)	*	*met(C|)	*	*met(C|)	*
=1-	=1-	=1-	=1-	=1-	=1-	=1-	=1-	=1-	=1-
00r	.	00r	.	00r	.	1.g	Ar-	1.b-	Ar-
=2-	=2-	=2-	=2-	=2-	=2-	=2-	=2-	=2-	=2-
.	.	.	.	.	.	4f\	-dens	2a\	-dens
.	.	.	.	.	.	4e\	.	.	.
=3-	=3-	=3-	=3-	=3-	=3-	=3-	=3-	=3-	=3-
.	.	.	.	.	.	2d/	eſt	2g/	eſt
.	.	.	.	.	.	2d/	cor	2.g/	cor
=4-	=4-	=4-	=4-	=4-	=4-	=4-	=4-	=4-	=4-
.	.	.	.	.	.	1d	me-	.	.
.	.	.	.	.	.	.	.	8f/L	.
.	.	.	.	.	.	.	.	8e/J	.
!	!	!	!	!	!	!	!	!LO:TX:t=P:problem=# below	!
.	.	.	.	.	.	.	.	2f#X/	me-
=5-	=5-	=5-	=5-	=5-	=5-	=5-	=5-	=5-	=5-
2r	.	2r	.	2r	.	2d/	-um	2g/	-um
1G/	Ar-	1b-\	Ar-	1dd\	Ar-	2r	.	2r	.
=6-	=6-	=6-	=6-	=6-	=6-	=6-	=6-	=6-	=6-
.	.	.	.	.	.	0r	.	0r	.
2A/	-dens	2a\	-dens	2cc\	-dens	.	.	.	.
=7-	=7-	=7-	=7-	=7-	=7-	=7-	=7-	=7-	=7-
2B-/	eſt	2g/	.	2b-/	.	.	.	.	.
2G/	cor	2.g/	eſt	2b-/	eſt	.	.	.	.
=8-	=8-	=8-	=8-	=8-	=8-	=8-	=8-	=8-	=8-
1d	me-	.	.	1a	cor	1r	.	1r	.
.	.	8f/L	cor	.	.	.	.	.	.
.	.	8e/J	.	.	.	.	.	.	.
.	.	2f/	me-	.	.	.	.	.	.
=9-	=9-	=9-	=9-	=9-	=9-	=9-	=9-	=9-	=9-
2G/	-um	2g/	-um	2g/	me-	2r	.	2r	.
1g\	ar-	1ee\	Ar-	2.b-/	-um	1g\	ar-	1b-\	Ar-
=10-	=10-	=10-	=10-	=10-	=10-	=10-	=10-	=10-	=10-
.	.	.	.	.	.	.	.	.	.
.	.	.	.	4cc\	Ar-	.	.	.	.
2g\	-dens	2b-\	-dens	2dd\	-dens	2g\	-dens	2dd\	-dens
=11-	=11-	=11-	=11-	=11-	=11-	=11-	=11-	=11-	=11-
1d	eſt	2a\	eſt	1dd	eſt	1a	eſt	2dd\	eſt
.	.	2dd\	cor	.	.	.	.	2a\	cor
=12-	=12-	=12-	=12-	=12-	=12-	=12-	=12-	=12-	=12-
1ryy	.	1ryy	.	1ryy	.	1a	cor	1ryy	.
=13-	=13-	=13-	=13-	=13-	=13-	=13-	=13-	=13-	=13-
1d	cor	0.a	me-	1.dd	cor	0.a	me-	0.a	me-
!LO:SIC:v:t=custos a	!	!	!	!	!	!	!	!	!
!LO:LB:g=original	!	!	!	!	!	!	!	!	!
=14-	=14-	=14-	=14-	=14-	=14-	=14-	=14-	=14-	=14-
0a	me-	.	.	.	.	.	.	.	.
!	!	!	!	!LO:SIC:v:s:t=4#cc	!	!	!	!	!
.	.	.	.	4cc\	me-	.	.	.	.
!	!	!	!	!LO:SIC:v:s:t=4bn	!	!	!	!	!
.	.	.	.	4b-/	.	.	.	.	.
=15-	=15-	=15-	=15-	=15-	=15-	=15-	=15-	=15-	=15-
!	!	!	!	!LO:TX:t=P:problem=# below	!	!	!	!	!
.	.	.	.	1cc#X	.	.	.	.	.
=16-	=16-	=16-	=16-	=16-	=16-	=16-	=16-	=16-	=16-
2d\	-um	2a\	-um	2dd\	-um	2a\,>	-um	2a\	-um
2r	.	2r	.	2r	.	2f\	de-	2a\	de-
=17-	=17-	=17-	=17-	=17-	=17-	=17-	=17-	=17-	=17-
0r	.	0r	.	0r	.	2.g\	-ſi-	2.cc\	-ſi-
.	.	.	.	.	.	4g\	-de-	4dd\	-de-
=18-	=18-	=18-	=18-	=18-	=18-	=18-	=18-	=18-	=18-
.	.	.	.	.	.	4g\	-ro	4cc\	-ro
!	!	!	!	!	!	!LO:TX:t=P:problem=# below	!	!	!
.	.	.	.	.	.	4f#X\	vi-	4a\	vi-
.	.	.	.	.	.	2g\	-de-	2g/	-de-
=19-	=19-	=19-	=19-	=19-	=19-	=19-	=19-	=19-	=19-
!	!	!	!	!	!	!LO:TX:t=P:problem=# below	!	!	!
2r	.	2r	.	2r	.	2f#X\	-re	2a\	-re,
!	!	!LO:SIC:v:t=custos a	!	!	!	!	!	!	!
!	!	!LO:LB:g=original	!	!	!	!	!	!	!
2d\	de-	2a\	de-	2dd\	de-	2r	.	2r	.
!	!	!	!	!LO:SIC:v:t=custos dd	!	!LO:TX:t=P:problem=niewyraźne źródło	!	!	!
!	!	!	!	!LO:LB:g=original	!	!	!	!	!
=20-	=20-	=20-	=20-	=20-	=20-	=20-	=20-	=20-	=20-
2.g\	-ſi-	2.b-\	-si-	2.dd\	-si-	0r	.	0r	.
4f\	-de-	4a\	-de-	4dd\	-de-	.	.	.	.
=21-	=21-	=21-	=21-	=21-	=21-	=21-	=21-	=21-	=21-
4g\	-ro	4b-\	-ro	4dd\	-ro	.	.	.	.
4d\	vi-	4a\	Vi-	4dd\	vi-	.	.	.	.
2G/	-de-	2g/	-de-	2dd\	-de-	.	.	.	.
!	!	!	!	!	!	!	!	!LO:SIC:v:t=custos cc	!
!	!	!	!	!	!	!	!	!LO:LB:g=original	!
=22-	=22-	=22-	=22-	=22-	=22-	=22-	=22-	=22-	=22-
2d\	-re	2a\	-re	2dd\	-re	2r	.	2r	.
2r	.	2r	.	2r	.	2a\	de-	2cc\	de-
!	!	!	!	!	!	!LO:SIC:v:t=custos a	!	!	!
!	!	!	!	!	!	!LO:LB:g=original	!	!	!
=23-	=23-	=23-	=23-	=23-	=23-	=23-	=23-	=23-	=23-
00r	.	00r	.	00r	.	2.a\	-si-	2.dd\	-ſi-
.	.	.	.	.	.	4b-\	-de-	4dd\	-de-
=24-	=24-	=24-	=24-	=24-	=24-	=24-	=24-	=24-	=24-
.	.	.	.	.	.	4g\	-ro	4cc\	-ro
.	.	.	.	.	.	4fny\	vi-	4cc\	vi-
.	.	.	.	.	.	2g\	-de-	2b-\	-de-
=25-	=25-	=25-	=25-	=25-	=25-	=25-	=25-	=25-	=25-
.	.	.	.	.	.	2a\	-re	2a\,>	-re,
.	.	.	.	.	.	2.a\	do-	2.dd\	do-
=26-	=26-	=26-	=26-	=26-	=26-	=26-	=26-	=26-	=26-
.	.	.	.	.	.	.	.	.	.
.	.	.	.	.	.	4a\	-mi-	4dd\	-mi-
.	.	.	.	.	.	2b-\	-num	2dd\	-num
=27-	=27-	=27-	=27-	=27-	=27-	=27-	=27-	=27-	=27-
00r	.	00r	.	00r	.	1.b-	do-	2.dd\	do-
.	.	.	.	.	.	.	.	4cc\	.
=28-	=28-	=28-	=28-	=28-	=28-	=28-	=28-	=28-	=28-
.	.	.	.	.	.	.	.	1b-	-mi-
.	.	.	.	.	.	2g\	-mi-	.	.
=29-	=29-	=29-	=29-	=29-	=29-	=29-	=29-	=29-	=29-
.	.	.	.	.	.	2a\	-num	2cc\	-num
.	.	.	.	.	.	2.b-\	me-	2b-\	.
=30-	=30-	=30-	=30-	=30-	=30-	=30-	=30-	=30-	=30-
.	.	.	.	.	.	.	.	1cc	me-
.	.	.	.	.	.	8a\L	.	.	.
.	.	.	.	.	.	8g\J	.	.	.
.	.	.	.	.	.	2a\	.	.	.
=31-	=31-	=31-	=31-	=31-	=31-	=31-	=31-	=31-	=31-
2r	.	2r	.	2r	.	2b-\	-um	2b-\,>	-um,
2.B-/	Do-	2.b-\	Do-	2.dd\	Do-	2.f\	do-	2.b-\	do-
=32-	=32-	=32-	=32-	=32-	=32-	=32-	=32-	=32-	=32-
.	.	.	.	.	.	.	.	.	.
4B-/	-mi-	4b-\	-mi-	4dd\	-mi-	4f\	-mi-	4b-\	-mi-
2f\	-num	2a\	-num	2ccny\,>	-núm	2f\	-num	2cc\,>	-num
=33-	=33-	=33-	=33-	=33-	=33-	=33-	=33-	=33-	=33-
2f\	Do-	1.cc	me-	1cc	D(o-	2a\	do-	1cc	do-
4c/	-mi-	.	.	.	.	1g\	-mi-	.	.
4d\	.	.	.	.	.	.	.	.	.
=34-	=34-	=34-	=34-	=34-	=34-	=34-	=34-	=34-	=34-
4e\	.	.	.	2a/	-mi)-	.	.	2cc\	-mi-
4f\	.	.	.	.	.	.	.	.	.
2g\	-num	2b-\	.	2dd\	-num	2g\	-num	2b-\	-num
=35-	=35-	=35-	=35-	=35-	=35-	=35-	=35-	=35-	=35-
1d	me-	1a	.	1dd	me-	1a	me-	1a	me-
!	!	!	!	!	!	!LO:SIC:v:t=custos g	!	!	!
!	!	!	!	!	!	!LO:PB:g=original	!	!	!
=36-	=36-	=36-	=36-	=36-	=36-	=36-	=36-	=36-	=36-
!	!	!LO:TX:t=P:problem=# below	!	!	!	!	!	!LO:SIC:v:s:t=2bn	!
!	!	!LO:N:acc=#	!	!	!	!	!	!	!
2.g\	.	2.bn\	-um	2.dd\	-um	2g\	-um	2b-\	-um
!	!	!	!	!	!	!	!	!LO:SIC:v:t=custos dd	!
!	!	!	!	!	!	!	!	!LO:LB:g=original	!
.	.	.	.	.	.	2r	.	2r	.
4g\	-um	4b\	Al-	4dd\	Al-	.	.	.	.
!LO:SIC:v:t=custos g	!	!	!	!	!	!	!	!	!
!LO:LB:g=original	!	!	!	!	!	!	!	!	!
=37-	=37-	=37-	=37-	=37-	=37-	=37-	=37-	=37-	=37-
4.g\	Al-	4.bny\	-l(e-	4.dd\	-l(e-	0r	.	0r	.
8g\	-le-	8cc\	.	8ee\	-lu-	.	.	.	.
4.B-/	-lu-	4.dd\	.	2ff\	-i)a	.	.	.	.
8f\	-ia	8cc\	-lu-	.	.	.	.	.	.
=38-	=38-	=38-	=38-	=38-	=38-	=38-	=38-	=38-	=38-
4.g\	Al-	4.b-y\	.	2dd\	Al-	.	.	.	.
8f\	-le-	8a\	.	.	.	.	.	.	.
!	!	!LO:SIC:v:t=custos g	!	!	!	!	!	!	!
!	!	!LO:PB:g=original	!	!	!	!	!	!	!
2e-X\	-lu-	2g/	.	4.b-/	-l(e-	.	.	.	.
.	.	.	.	8cc\	-lu-	.	.	.	.
=39-	=39-	=39-	=39-	=39-	=39-	=39-	=39-	=39-	=39-
2d\	-ia	2a\	-i)a	2dd\	-i)a	4r	.	4r	.
.	.	.	.	.	.	4a\	Al-	4dd\	Al-
!	!	!	!	!LO:SIC:v:t=custos dd	!	!	!	!	!
!	!	!	!	!LO:LB:g=original	!	!	!	!	!
2r	.	2r	.	2r	.	4a\	-le-	4dd\	-le-
.	.	.	.	.	.	4g\	.	4cc\	-lu-
=40-	=40-	=40-	=40-	=40-	=40-	=40-	=40-	=40-	=40-
0r	.	0r	.	0r	.	4.f\	-lu-	2cc\,>	-ia,
.	.	.	.	.	.	8g\	.	.	.
.	.	.	.	.	.	4a\,>	-ia,	4dd\	al-
.	.	.	.	.	.	4e/	al-	4dd\	-le-
=41-	=41-	=41-	=41-	=41-	=41-	=41-	=41-	=41-	=41-
.	.	.	.	.	.	4f\	-le-	2dd\	-lu-
.	.	.	.	.	.	4g\	.	.	.
!	!	!	!	!	!	!	!	!LO:TX:t=P:problem=# below	!
.	.	.	.	.	.	2a\	-lu-	2cc#X\,>	-ia,
=42-	=42-	=42-	=42-	=42-	=42-	=42-	=42-	=42-	=42-
4r	.	4r	.	4r	.	4a\,>	-ia,	4dd\	al-
4d\	Al-	4dd\	Al-	4dd\	Al-	4a\	al-	4dd\	-le-
4d\	-le-	4a\	-l(e-	4dd\	-l(e-	4a\	-le-	4dd\	-lu-
4d\	-lu-	4a\	-lu-	4dd\	-lu-	4a\	-lu-	4dd\,>	-ia,
=43-	=43-	=43-	=43-	=43-	=43-	=43-	=43-	=43-	=43-
1g	-ia	1b-	-i)a.	1dd	-i)a	1g,>	-ia	2.b-\	al-
.	.	.	.	.	.	.	.	4a\	-le-
=44-	=44-	=44-	=44-	=44-	=44-	=44-	=44-	=44-	=44-
2c/	Al-	2cc\	Al-	2cc\	Al-	2g\	al-	4g/	-lu-
.	.	.	.	.	.	.	.	4a\	-ia
2g\	-le-	2b-\	-l(e-	2dd\	-l(e-	2g\	-le-	4b-\	al-
.	.	.	.	.	.	.	.	4ccny\	.
=45-	=45-	=45-	=45-	=45-	=45-	=45-	=45-	=45-	=45-
1d	-lu-	1a	-lu-	1dd	-lu-	1a	-lu-	2dd\	-l[e]-
.	.	.	.	.	.	.	.	2a\	-lu-
=46-	=46-	=46-	=46-	=46-	=46-	=46-	=46-	=46-	=46-
!	!	!LO:TX:t=P:problem=# below	!	!	!	!	!	!	!
!	!	!LO:N:acc=#	!	!	!	!	!	!	!
1g	-ia	1bn	-i)a.	1dd	-i)a	1g	-ia	1dd,>	-ia,
=47-	=47-	=47-	=47-	=47-	=47-	=47-	=47-	=47-	=47-
0r	.	0r	.	0r	.	2a\	Que-	2dd\	Que-
.	.	.	.	.	.	2g\	.	4cc\	.
.	.	.	.	.	.	.	.	4b-\	.
=48-	=48-	=48-	=48-	=48-	=48-	=48-	=48-	=48-	=48-
!	!	!	!	!	!	!LO:TX:t=P:problem=kropka znajduje się w kolejnym systemie	!	!	!
.	.	.	.	.	.	2.f\	-ro	2.a\	.
!	!	!	!	!	!	!LO:SIC:v:t=custos g	!	!	!
!	!	!	!	!	!	!LO:LB:g=original	!	!	!
.	.	.	.	.	.	4g\	.	4b-\	.
=49-	=49-	=49-	=49-	=49-	=49-	=49-	=49-	=49-	=49-
1r	.	1r	.	1r	.	1a	que-	2cc\	.
.	.	.	.	.	.	.	.	2a\	-ro
!	!	!	!	!	!	!	!	!LO:SIC:v:t=custos g#	!
!	!	!	!	!	!	!	!	!LO:LB:g=original	!
=50-	=50-	=50-	=50-	=50-	=50-	=50-	=50-	=50-	=50-
!	!	!LO:TX:t=P:problem=# below	!	!LO:TX:t=P:problem=# below	!	!	!	!	!
!	!	!LO:N:acc=#	!	!LO:N:acc=#	!	!	!	!LO:TX:t=P:problem=# below	!
0eny	quae-	0bn	quae-	0bn	qui-	0e	.	0g#X	que-
=51-	=51-	=51-	=51-	=51-	=51-	=51-	=51-	=51-	=51-
.	.	.	.	.	.	.	.	.	.
=52-	=52-	=52-	=52-	=52-	=52-	=52-	=52-	=52-	=52-
!	!	!	!	!LO:TX:t=P:problem=# below	!	!	!	!	!
2A/	-ro	2a\	-ro	2cc#X\	-a	2e/,>	-ro	2a\,>	-ro,
!	!	!	!	!	!	!	!	!LO:TX:t=P:problem=# below	!
2r	.	2r	.	2r	.	2a\	et	2cc#X\	et
=53-	=53-	=53-	=53-	=53-	=53-	=53-	=53-	=53-	=53-
2r	.	2r	.	2r	.	4a\	non	4dd\	non
.	.	.	.	.	.	4a\	in-	4dd\	in-
4r	.	4r	.	4r	.	4.a\	-ve-	4.cc#X\	-ve-
4a\	et	4cc\	et	4ee\	et	.	.	.	.
.	.	.	.	.	.	8a\	-ni-	8cc#\	-ni-
=54-	=54-	=54-	=54-	=54-	=54-	=54-	=54-	=54-	=54-
4d\	non	4a\	non	4ff\	non	2a\	-o	2dd\	-o,
4d\	in-	4dd\	in-	4ff\	in-	.	.	.	.
!LO:SIC:v:t=custos a	!	!	!	!	!	!	!	!	!
!LO:LB:g=original	!	!	!	!	!	!	!	!	!
!	!	!LO:TX:t=P:problem=# below	!	!	!	!	!	!	!
4.a\	-ve-	4.cc#X\	-ve-	4.ee\	-ve-	4r	.	4r	.
!	!	!	!	!	!	!	!	!LO:TX:t=P:problem=# below	!
.	.	.	.	.	.	4a\	et	4cc#X\	et
8a\	-ni-	8cc#\	-ni-	8ee\	-ni-	.	.	.	.
=55-	=55-	=55-	=55-	=55-	=55-	=55-	=55-	=55-	=55-
2d\	-o	2dd\	-o	2dd\	-o	4a\	non	4dd\	non
.	.	.	.	.	.	4a\	in-	4dd\	in-
!	!	!	!	!	!	!	!	!LO:TX:t=P:problem=# below	!
4r	.	4r	.	4r	.	4.a\	-ve-	4.cc#X\	-ve-
4a\	et	4ccny\	et	4ee\	et	.	.	.	.
.	.	.	.	.	.	8a\	-ni-	8cc#\	-ni-
=56-	=56-	=56-	=56-	=56-	=56-	=56-	=56-	=56-	=56-
4d\	non	4a\	non	4ff\	non	2a\	-o	2dd\	-o,
!	!	!LO:SIC:v:t=custos dd	!	!	!	!	!	!	!
!	!	!LO:LB:g=original	!	!	!	!	!	!	!
!	!	!	!	!LO:TX:t=P:problem=dalej brak źródła	!	!	!	!	!
4d\	in-	4dd\	in-	4ff\	in	.	.	.	.
!	!	!	!	!LO:SIC:v:t=custos ee	!	!	!	!	!
!	!	!	!	!LO:PB:g=original	!	!	!	!	!
!	!	!LO:TX:t=P:problem=# below	!	!	!	!	!	!	!
4.a\	-ve-	4.cc#X\	-Ve-	2ryy	.	4r	.	4r	.
!	!	!	!	!	!	!	!	!LO:SIC:v:s:t=4cc#	!
.	.	.	.	.	.	4a\	et	4ccny\	et
8a\	-ni-	8cc#\	-ni-	.	.	.	.	.	.
=57-	=57-	=57-	=57-	=57-	=57-	=57-	=57-	=57-	=57-
2d\	-o	2dd\	-o	1ryy	.	4a\	non	4a\	non
.	.	.	.	.	.	4e\	in-	4dd\	in-
!	!	!	!	!	!	!	!	!LO:TX:t=P:problem=# below	!
4r	.	4r	.	.	.	4.a\	-ve-	4.cc#X\	-ve-
!	!	!LO:SIC:v:s:t=4cc#	!	!	!	!	!	!	!
4a\	et	4cc\ny	et	.	.	.	.	.	.
.	.	.	.	.	.	8a\	-ni-	8cc#\	-ni-
=58-	=58-	=58-	=58-	=58-	=58-	=58-	=58-	=58-	=58-
4d\	non	4a\	non	1ryy	.	2a\	-o	2dd\	-o,
4d\	in-	4dd\	in-	.	.	.	.	.	.
!	!	!	!	!	!	!LO:SIC:v:t=custos a	!	!	!
!	!	!	!	!	!	!LO:LB:g=original	!	!	!
!	!	!LO:TX:t=P:problem=# below	!	!	!	!	!	!	!
4.a\	-ve-	4.cc#X\	-ve-	.	.	4r	.	4r	.
!	!	!	!	!	!	!	!	!LO:SIC:v:s:t=4cc#	!
.	.	.	.	.	.	4a\	et	4ccny\	et
8a\	-ni-	8cc#\	-ni-	.	.	.	.	.	.
=59-	=59-	=59-	=59-	=59-	=59-	=59-	=59-	=59-	=59-
2d\,>	-o	2dd\	-o	1ryy	.	1.a	non	1.dd	no
2d\	et	2dd\	et	.	.	.	.	.	.
=60-	=60-	=60-	=60-	=60-	=60-	=60-	=60-	=60-	=60-
2d\	non	2dd\	non	1ryy	.	.	.	.	.
2d\	in-	2a\	in-	.	.	2a\	in-	2a\	in-
=61-	=61-	=61-	=61-	=61-	=61-	=61-	=61-	=61-	=61-
2.a\	-ve-	2.a\	-ve-	1ryy	.	2.a\	-ve-	2.a\	-ve-
4a\	-ni-	4a\	-ni-	.	.	4e/	-ni-	4a\	-ni-
!	!	!	!	!	!	!	!	!LO:SIC:v:t=custos a	!
!	!	!	!	!	!	!	!	!LO:LB:g=original	!
=62-	=62-	=62-	=62-	=62-	=62-	=62-	=62-	=62-	=62-
!	!	!	!	!	!	!LO:TX:t=P:problem=# below	!	!	!
1d	-o	1a	-o.	1ryy	.	1f#X,>	-o,	1a,>	-o,
=63-	=63-	=63-	=63-	=63-	=63-	=63-	=63-	=63-	=63-
0r	.	0r	.	1ryy	.	2.g\	u-	2.cc\	u-
.	.	.	.	.	.	4g\	-bi	4cc\	-bi
=64-	=64-	=64-	=64-	=64-	=64-	=64-	=64-	=64-	=64-
.	.	.	.	1ryy	.	4g\	po-	4cc\	po-
.	.	.	.	.	.	4g\	-su-	4cc\	-ſu-
.	.	.	.	.	.	2.a\	-e-	2.cc\	-e-
=65-	=65-	=65-	=65-	=65-	=65-	=65-	=65-	=65-	=65-
1r	.	1r	.	1ryy	.	.	.	.	.
.	.	.	.	.	.	4a\	-runt	4cc\	-runt
.	.	.	.	.	.	2g\	e-	2cc\	e-
=66-	=66-	=66-	=66-	=66-	=66-	=66-	=66-	=66-	=66-
2r	.	2r	.	1ryy	.	2a\	-um	2cc\	-um
2.f\	U-	2.a\	U-	.	.	2r	.	2r	.
=67-	=67-	=67-	=67-	=67-	=67-	=67-	=67-	=67-	=67-
.	.	.	.	1ryy	.	0r	.	0r	.
4f\	-bi	4a\	-bi	.	.	.	.	.	.
!LO:SIC:v:t=custos f	!	!	!	!	!	!	!	!	!
!LO:LB:g=original	!	!	!	!	!	!	!	!	!
4f\	po-	4a\	po-	.	.	.	.	.	.
4f\	-ſu-	4a\	-su-	.	.	.	.	.	.
=68-	=68-	=68-	=68-	=68-	=68-	=68-	=68-	=68-	=68-
2.c/	-e-	2.ccny\	-e-	1ryy	.	.	.	.	.
4G/	-runt	4b-y\	-runt	.	.	.	.	.	.
=69-	=69-	=69-	=69-	=69-	=69-	=69-	=69-	=69-	=69-
1d	e-	1a	e-	1ryy	.	1r	.	1r	.
!	!	!LO:SIC:v:t=custos bn	!	!	!	!	!	!	!
!	!	!LO:LB:g=original	!	!	!	!	!	!	!
=70-	=70-	=70-	=70-	=70-	=70-	=70-	=70-	=70-	=70-
!	!	!LO:TX:t=P:problem=# below	!	!	!	!	!	!	!
!	!	!LO:N:acc=#	!	!	!	!	!	!	!
2G/	-um	2bn\	-um	1ryy	.	2r	.	2r	.
2.g\	U-	2.b\	U-	.	.	2.g\	u-	2.dd\	u-
=71-	=71-	=71-	=71-	=71-	=71-	=71-	=71-	=71-	=71-
.	.	.	.	1ryy	.	.	.	.	.
4g\	-bi	4b-y\	-bi	.	.	4g\	-bi	4b-\	-bi
4g\	po-	4b-\	po-	.	.	4g\	po-	4b-\	po-
4g\	-ſu-	4b-\	-su-	.	.	4g\	-su-	4b-\	-ſu-
=72-	=72-	=72-	=72-	=72-	=72-	=72-	=72-	=72-	=72-
2c/	-e-	2g/	-e-	1ryy	.	2g\	-e-	2cc\	-e-
!	!	!	!	!	!	!LO:SIC:v:t=custos g	!	!	!
!	!	!	!	!	!	!LO:LB:g=original	!	!	!
2g\	-runt	2b-\	-runt	.	.	2g\	-runt	2b-\	-runt
=73-	=73-	=73-	=73-	=73-	=73-	=73-	=73-	=73-	=73-
1d	e-	1a	e-	1ryy	.	1a	e-	1dd	e-
=74-	=74-	=74-	=74-	=74-	=74-	=74-	=74-	=74-	=74-
2g\	-um	2b-\	-um.	1ryy	.	4g\	-um,	4dd\,>	-um,
.	.	.	.	.	.	4g\	al-	4dd\	Al-
2r	.	2r	.	.	.	4fny\	-le-	4b-\	-le-
.	.	.	.	.	.	4g\	-lu-	4cc\	-lu-
=75-	=75-	=75-	=75-	=75-	=75-	=75-	=75-	=75-	=75-
4r	.	4r	.	1ryy	.	2a\	-ia	2dd\	-ia
4d\	Al-	4a\	Al-	.	.	.	.	.	.
4g\	-le-	4b-\	.	.	.	2r	.	2r	.
4f\	-l[u-	4a\	-l(e-	.	.	.	.	.	.
=76-	=76-	=76-	=76-	=76-	=76-	=76-	=76-	=76-	=76-
!	!	!LO:SIC:v:s:t=4b-	!	!	!	!	!	!	!
!	!	!LO:TX:t=P:problem=# below	!	!	!	!	!	!	!
!	!	!LO:N:acc=#	!	!	!	!	!	!	!
4B-/,>	-ia]	4bn\	-lu-	1ryy	.	4r	.	4r	.
!	!	!LO:SIC:v:s:t=4b-	!	!	!	!	!	!	!
4B-/	Al-	4b\	-i)a.	.	.	4b-\	al-	4dd\	al-
2f\	-le-	2cc\	Al-	.	.	4a\	-le-	4cc\	-le-
.	.	.	.	.	.	4g\	-lu-	4b-\	-lu-
=77-	=77-	=77-	=77-	=77-	=77-	=77-	=77-	=77-	=77-
2f\	-lu-	2a\	-l(e-	1ryy	.	4f\,>	-ia	4a\,>	-ia
!	!	!	!	!	!	!	!	!LO:SIC:v:t=custos dd	!
!	!	!	!	!	!	!	!	!LO:LB:g=original	!
.	.	.	.	.	.	4f\	al-	4dd\	al-
2c/	-ia	2cc\	-lu-	.	.	4.e/	-le-	1cc\	-le-
.	.	.	.	.	.	8e/	-lu-	.	.
!LO:SIC:v:t=custos c	!	!	!	!	!	!	!	!	!
!LO:LB:g=original	!	!	!	!	!	!	!	!	!
=78-	=78-	=78-	=78-	=78-	=78-	=78-	=78-	=78-	=78-
2c/	Al-	2g/	-i)a.	1ryy	.	2g\,>	-ia	.	.
2g\	-le-	4b-y\	Al-	.	.	4g\	al-	2b-\	-lu-
.	.	4cc\	.	.	.	4g\	-le-	.	.
=79-	=79-	=79-	=79-	=79-	=79-	=79-	=79-	=79-	=79-
1d	-lu-	2.dd\	-l(e-	1ryy	.	1a	-lu-	1a	-ia,
.	.	4dd\	-lu-	.	.	.	.	.	.
=80-	=80-	=80-	=80-	=80-	=80-	=80-	=80-	=80-	=80-
1g	-ia	1b-	-i)a.	1ryy	.	2g\	-ia,	2b-\,>	ſi
!	!	!	!	!	!	!	!	!LO:TX:t=P:problem=# below	!
!	!	!	!	!	!	!	!	!LO:N:acc=#	!
.	.	.	.	.	.	2g\	si	2bn\	tu,
!	!	!LO:SIC:v:t=custos cc	!	!	!	!	!	!	!
!	!	!LO:LB:g=original	!	!	!	!	!	!	!
=81-	=81-	=81-	=81-	=81-	=81-	=81-	=81-	=81-	=81-
2r	.	2r	.	1ryy	.	1g	tu	1cc	.
2c/	Si-	2cc\	Si-	.	.	.	.	.	.
=82-	=82-	=82-	=82-	=82-	=82-	=82-	=82-	=82-	=82-
!	!	!	!	!	!	!	!	!LO:TX:t=P:problem=pauza prawie niewiczona (uszkodzona strona)	!
2f\	-tu	2a\	-tu	1ryy	.	0r	.	1r	.
4.d\	sus-	4.a\	ſus-	.	.	.	.	.	.
8d\	-tu-	8a\	-tu-	.	.	.	.	.	.
=83-	=83-	=83-	=83-	=83-	=83-	=83-	=83-	=83-	=83-
!	!	!	!	!	!	!	!	!LO:N:vis=4	!
4d\	-l[i]ſ-	4a\	-lis-	1ryy	.	.	.	1r	.
4g\	-ti	4b-\	-ti	.	.	.	.	.	.
2f\	e-	2a\	e-	.	.	.	.	.	.
=84-	=84-	=84-	=84-	=84-	=84-	=84-	=84-	=84-	=84-
2B-/	-um	2b-\	-um	1ryy	.	4r	.	4.b-\	di-
.	.	.	.	.	.	4f\	di-	.	.
.	.	.	.	.	.	.	.	8b-\	-ci-
!	!	!	!	!	!	!LO:SIC:v:t=custos f	!	!	!
!	!	!	!	!	!	!LO:LB:g=original	!	!	!
!	!	!	!	!	!	!LO:TX:t=P:problem=niewyraźne źródło	!	!	!
2r	.	2r	.	.	.	4f\	-ci-	2gny/	-to
.	.	.	.	.	.	4e-X/	-to	.	.
=85-	=85-	=85-	=85-	=85-	=85-	=85-	=85-	=85-	=85-
!	!	!	!	!	!	!	!	!LO:TX:t=P:problem=# below	!
2r	.	2r	.	1ryy	.	2d/	mi-	2f#X/	mi-
4r	.	4r	.	.	.	2d/	-hi	2g/	-hi,
4.g\	di-	4.b-\	di-	.	.	.	.	.	.
=86-	=86-	=86-	=86-	=86-	=86-	=86-	=86-	=86-	=86-
.	.	.	.	1ryy	.	1r	.	1r	.
8g\	-ci-	8b-\	-ci-	.	.	.	.	.	.
4f\	-to	4a\	-to	.	.	.	.	.	.
2d\	mi-	2f/	mi-	.	.	.	.	.	.
=87-	=87-	=87-	=87-	=87-	=87-	=87-	=87-	=87-	=87-
2c/	-hi	2g/	-hi	1ryy	.	4r	.	4r	.
.	.	.	.	.	.	4.g\	di-	4.cc\	di-
2r	.	2r	.	.	.	.	.	.	.
.	.	.	.	.	.	8g\	-ci-	8cc\	-ci-
.	.	.	.	.	.	2b-\	-to	4dd\	-to
4ryy	.	4ryy	.	4ryy	.	.	.	4ryy	.
=88-	=88-	=88-	=88-	=88-	=88-	=88-	=88-	=88-	=88-
2r	.	2r	.	1ryy	.	2b-\	mi-	2b-\	mi-
4r	.	4r	.	.	.	2a\	-hi	2cc\	-hi,
4c/	et	4cc\	et	.	.	.	.	.	.
=89-	=89-	=89-	=89-	=89-	=89-	=89-	=89-	=89-	=89-
2.d\	e-	2.a\	e-	1ryy	.	0r	.	0r	.
4f\	-go	4a\	-go	.	.	.	.	.	.
=90-	=90-	=90-	=90-	=90-	=90-	=90-	=90-	=90-	=90-
4c/	e-	4g/	e-	1ryy	.	.	.	.	.
4d\	-um	4f/	-um	.	.	.	.	.	.
!LO:SIC:v:t=custos c	!	!	!	!	!	!	!	!	!
!LO:PB:g=original	!	!	!	!	!	!	!	!	!
2c/	to-	2g/	tol-	.	.	.	.	.	.
=91-	=91-	=91-	=91-	=91-	=91-	=91-	=91-	=91-	=91-
2F/	-lam	2a\	-lam	1ryy	.	4r	.	4r	.
.	.	.	.	.	.	4f\	et	4cc\	et
2r	.	2r	.	.	.	2.f\	e-	2.b-\	e-
!	!	!LO:SIC:v:t=custos dd	!	!	!	!	!	!	!
!	!	!LO:LB:g=original	!	!	!	!	!	!	!
=92-	=92-	=92-	=92-	=92-	=92-	=92-	=92-	=92-	=92-
1r	.	1r	.	1ryy	.	.	.	.	.
.	.	.	.	.	.	4d/	-go	4b-\	-go
.	.	.	.	.	.	4g\	e-	4g/	e-
.	.	.	.	.	.	4g\	-um	4g/	-um
=93-	=93-	=93-	=93-	=93-	=93-	=93-	=93-	=93-	=93-
!	!	!	!	!	!	!LO:TX:t=P:problem=# below	!	!	!
2r	.	2r	.	1ryy	.	2f#X\	tol-	2a\	tol-
!	!	!	!	!	!	!	!	!LO:TX:t=P:problem=# below	!
!	!	!	!	!	!	!	!	!LO:N:acc=#	!
4r	.	4r	.	.	.	2g\	-lam	2bn\	-lam
4c\	et	4dd\	et	.	.	.	.	.	.
!	!	!	!	!	!	!	!	!LO:SIC:v:t=custos cc	!
!	!	!	!	!	!	!	!	!LO:PB:g=original	!
=94-	=94-	=94-	=94-	=94-	=94-	=94-	=94-	=94-	=94-
2.g\	e-	2.b-\	e-	1ryy	.	0r	.	0r	.
4g\	-go	4b-\	-go	.	.	.	.	.	.
=95-	=95-	=95-	=95-	=95-	=95-	=95-	=95-	=95-	=95-
4f\	e-	4cc\	e-	1ryy	.	.	.	.	.
4a\	-um	4cc\	-um	.	.	.	.	.	.
!	!	!LO:TX:t=P:problem=# below	!	!	!	!	!	!	!
!	!	!LO:N:acc=#	!	!	!	!	!	!	!
2g\	to-	2bn\	tol-	.	.	.	.	.	.
=96-	=96-	=96-	=96-	=96-	=96-	=96-	=96-	=96-	=96-
2c/	-lam	2cc\	-lam	1ryy	.	4r	.	4r	.
.	.	.	.	.	.	4a\	et	4cc\	et
2r	.	2r	.	.	.	2g\	e-	2.cc\	e-
=97-	=97-	=97-	=97-	=97-	=97-	=97-	=97-	=97-	=97-
1r	.	1r	.	1ryy	.	4ryy	.	.	.
.	.	.	.	.	.	4g\	-go	4cc\	-go
.	.	.	.	.	.	4b-\	e-	4dd\	e-
.	.	.	.	.	.	4fny\	-um	4b-y\	-um
!	!	!	!	!	!	!LO:SIC:v:t=custos g	!	!	!
!	!	!	!	!	!	!LO:LB:g=original	!	!	!
=98-	=98-	=98-	=98-	=98-	=98-	=98-	=98-	=98-	=98-
2r	.	2r	.	1ryy	.	2g\	tol-	2cc\	tol-
4r	.	4r	.	.	.	2a\	-lam	2cc\	-lam,
4f\	Al-	4a\	Al-	.	.	.	.	.	.
=99-	=99-	=99-	=99-	=99-	=99-	=99-	=99-	=99-	=99-
4e\	-le-	4g/	-l(e-	1ryy	.	2r	.	2r	.
4f\	-lu-	4a\	-lu-	.	.	.	.	.	.
2B-/	-ia	2b-y\	-i)a.	.	.	4r	.	4r	.
.	.	.	.	.	.	4b-\	al-	4dd\	Al-
=100-	=100-	=100-	=100-	=100-	=100-	=100-	=100-	=100-	=100-
2r	.	2r	.	1ryy	.	4g\	-le-	4cc\	-le-
.	.	.	.	.	.	4d/	-lu-	4a\	-lu-
!	!	!	!	!	!	!	!	!LO:TX:t=P:problem=# below	!
!	!	!	!	!	!	!	!	!LO:N:acc=#	!
4r	.	4r	.	.	.	2g\	-ia	2bn\	-ia,
4g\	Al-	4b-\	Al-	.	.	.	.	.	.
=101-	=101-	=101-	=101-	=101-	=101-	=101-	=101-	=101-	=101-
4f\	-le-	4a\	-l(e-	1ryy	.	2r	.	2r	.
4g\	-lu-	4b-\	-lu-	.	.	.	.	.	.
2c/	-ia	2cc\	-i)a.	.	.	4r	.	4r	.
.	.	.	.	.	.	4g\	al-	4cc\	al-
=102-	=102-	=102-	=102-	=102-	=102-	=102-	=102-	=102-	=102-
2r	.	2r	.	1ryy	.	4g\	-le-	4dd\	-le-
.	.	.	.	.	.	4g\	-lu-	4cc\	-lu-
4r	.	4r	.	.	.	2a\	-ia	2cc\	-ia,
4f\	Al-	4a\	Al-	.	.	.	.	.	.
=103-	=103-	=103-	=103-	=103-	=103-	=103-	=103-	=103-	=103-
4e\	-le-	4g/	-l(e-	1ryy	.	2r	.	2r	.
4f\	-lu-	4a\	-lu-	.	.	.	.	.	.
2B-/	-ia	2b-\	-i)a	.	.	4r	.	4r	.
.	.	.	.	.	.	4f\	al-	4b-y\	al-
!	!	!LO:SIC:v:t=custos b-	!	!	!	!	!	!	!
!	!	!LO:LB:g=original	!	!	!	!	!	!	!
=104-	=104-	=104-	=104-	=104-	=104-	=104-	=104-	=104-	=104-
2r	.	2r	.	1ryy	.	4e-X/	-le-	4g/	-le-
!	!	!	!	!	!	!	!	!LO:TX:t=P:problem=# below	!
.	.	.	.	.	.	4d/	-lu-	4f#X/	-lu-
4r	.	4r	.	.	.	2d/	-ia	2g/	-ia,
!LO:SIC:v:t=custos g	!	!	!	!	!	!	!	!	!
!LO:LB:g=original	!	!	!	!	!	!	!	!	!
4g\	Al-	4b-\	Al-	.	.	.	.	.	.
=105-	=105-	=105-	=105-	=105-	=105-	=105-	=105-	=105-	=105-
4f\	-le-	4a\	-l(e-	1ryy	.	2r	.	2r	.
4d\	-lu-	4b-\	-lu-	.	.	.	.	.	.
2c/	-ia	2cc\	-i)a.	.	.	4r	.	4r	.
.	.	.	.	.	.	4g\	al-	4cc\	al-
=106-	=106-	=106-	=106-	=106-	=106-	=106-	=106-	=106-	=106-
2r	.	2r	.	1ryy	.	4f\	-le-	4a\	-le-
.	.	.	.	.	.	4g\	-lu-	4cc\	-lu-
4r	.	4r	.	.	.	2a\	-ia	2cc\	-ia,
4f\	Al-	4a\	Al-	.	.	.	.	.	.
=107-	=107-	=107-	=107-	=107-	=107-	=107-	=107-	=107-	=107-
4e\	-le-	4g/	-l(e-	1ryy	.	2r	.	2r	.
4f\	-lu-	4a\	-lu-	.	.	.	.	.	.
2B-/	-ia	2b-\	-i)a.	.	.	4r	.	4r	.
!	!	!	!	!	!	!LO:TX:t=P:problem=dalej brak źródła	!	!	!
!	!	!	!	!	!	!LO:SIC:v:t=custos g	!	!	!
.	.	.	.	.	.	4b-\	alle-	4dd\	al-
=108-	=108-	=108-	=108-	=108-	=108-	=108-	=108-	=108-	=108-
2r	.	2r	.	1ryy	.	1ryy	.	4cc\	-le-
!	!	!	!	!	!	!	!	!LO:SIC:v:t=custos a	!
!	!	!	!	!	!	!	!	!LO:LB:g=original	!
.	.	.	.	.	.	.	.	4a\	-lu-
!	!	!	!	!	!	!	!	!LO:TX:t=P:problem=# below	!
!	!	!	!	!	!	!	!	!LO:N:acc=#	!
4r	.	4r	.	.	.	.	.	4bn\,>	-ia,
4g\	Al-	4b-\	Al-	.	.	.	.	4b\	al-
=109-	=109-	=109-	=109-	=109-	=109-	=109-	=109-	=109-	=109-
4d\	-le-	4dd\	.	1ryy	.	1ryy	.	4a\	-le-
4g\	-lu-	4b-\	-l(e-	.	.	.	.	4b-y\	-lu-
4d\,>	-ia	4dd\	.	.	.	.	.	4a\,>	-ia,
4g\	Al-	4b-\	-lu-	.	.	.	.	4b-\	al-
=110-	=110-	=110-	=110-	=110-	=110-	=110-	=110-	=110-	=110-
4c/	-le-	4g/	-i)a.	1ryy	.	1ryy	.	4cc\	-le-
4f\	-lu-	4a\	Al-	.	.	.	.	4a\	-lu-
2c/,>	-ia	2g/	-l(e-	.	.	.	.	2cc\,>	-ia,
=111-	=111-	=111-	=111-	=111-	=111-	=111-	=111-	=111-	=111-
2.f\	Al-	2.a\	-lu-	1ryy	.	1ryy	.	1cc	al-
8e\L	.	4b-\	-i)a.	.	.	.	.	.	.
8d\J	.	.	.	.	.	.	.	.	.
=112-	=112-	=112-	=112-	=112-	=112-	=112-	=112-	=112-	=112-
4c/	-le-	2cc\	Al-	1ryy	.	1ryy	.	1cc	-le-
4d\	-lu-	.	.	.	.	.	.	.	.
4e\	.	4g/	-l(e-	.	.	.	.	.	.
4f\	-ia	4a\	-lu-	.	.	.	.	.	.
=113-	=113-	=113-	=113-	=113-	=113-	=113-	=113-	=113-	=113-
2.g\	Al-	2.b-\	-i)a.	1ryy	.	1ryy	.	2.b-\	-lu-
8f\L	.	4cc\	Al-	.	.	.	.	4cc\,>	-ia,
8e\J	.	.	.	.	.	.	.	.	.
=114-	=114-	=114-	=114-	=114-	=114-	=114-	=114-	=114-	=114-
1.d	-le-	1.dd	-l(e-	1ryy	.	1ryy	.	1.dd	alle-
=115-	=115-	=115-	=115-	=115-	=115-	=115-	=115-	=115-	=115-
.	.	.	.	1ryy	.	1ryy	.	.	.
2d\	-lu-	2dd\	-lu-	.	.	.	.	2a\	-lu-
=116-	=116-	=116-	=116-	=116-	=116-	=116-	=116-	=116-	=116-
!	!	!LO:TX:t=P:problem=ozdobna nuta końcowa	!	!	!	!	!	!LO:N:acc=#	!
0g;;	-ia-	0dd;>	-i)a.	0ryy	.	0ryy	.	0bn;;	-ia,
=-	=-	=-	=-	=-	=-	=-	=-	=-	=-
*-	*-	*-	*-	*-	*-	*-	*-	*-	*-
!!!system-decoration: [(g1)][(g2)]
!!!AIN: 5 empty
!!!ENC: Anastazja Marusiak
!!!END: 2021-10-08
!!!EED: Jędrzej Mróz
!!!ESR: 2021-10-21
!!!RDF**kern: > = above
!!!RDF**kern: < = below
